!!!COM: Scarlatti, Domenico
!!!CDT: 1685-1757
!!!OTL: Sonata in C major, L.303, K.170
!!!SCT: K. 170
!!!SCT: L. 303
!!!OMD: Andante moderato e cantabile ([half]=66)
**kern	**kern	**dynam
*staff2	*staff1	*staff1/2
*Icemba	*Icemba	*
*I"L.303 (K.170)	*I"L.303 (K.170)	*
*>[A,A,B,B]	*>[A,A,B,B]	*>[A,A,B,B]
*>norep[A,B]	*>norep[A,B]	*>norep[A,B]
*>A	*>A	*>A
*clefF4	*clefG2	*
*k[]	*k[]	*
*C:	*C:	*
*M2/2	*M2/2	*
*met(c|)	*met(c|)	*
*MM132	*MM132	*
4r	(4ee	p
=1	=1	=1
4r	12ggL	.
.	12ff	.
.	12eeJ)	.
*clefG2	*	*
(4c	(2ee	.
4e	.	.
4g)	4dd	.
=2	=2	=2
4r	2cc)	.
(4a	.	.
4g	(4.ccc	mf
4f	.	.
.	16bbLL	.
.	16aaJJ	.
=3	=3	=3
4e 4g	4gg	.
4c	4ee	.
.	(16ggqq	.
4d 4f	2ffT)	>
4G)	.	.
=4	=4	=4
4r	2ee)	]
(4c	.	.
4d	(4.gg	p
4e	.	.
.	16ffLL	.
.	16eeJJ	.
!!LO:LB:g=z
=5	=5	=5
4f	4dd	.
4f#	4a	.
4g	2bt	.
4fn)	.	.
.	16aqLL	.
.	16bqJJ	.
=6	=6	=6
4r	2cc)	.
(4e	.	.
4d	4r	.
4c)	(4ccc	mf
=7	=7	=7
4r	4ee	>
(4d	2ff)	]
4B	.	.
4G)	(4ddd	.
=8	=8	=8
4r	4dd	>
(4c	2ee)	]
4e	.	.
4c)	(4ccc	.
=9	=9	=9
4r	4cc)	.
(<4f	(2aa	.
4a	.	.
4f	4cc	.
!!LO:LB:g=z
=10	=10	=10
4g	4.bmm	>
4d	.	.
.	8a	.
*clefF4	*	*
2G)	4g)	]
.	(4dd	p
=11	=11	=11
4r	4f)	.
(4d	(2ff	>
4B	.	.
4c)	4ee	]]
=12	=12	=12
4r	4a)	.
(4F	(2aa	>
4f	.	.
4e	4gg	]]
=13	=13	=13
4d	4b)	.
4c	(12ffL	.
.	12ee	.
.	12ddJ	.
4g'	4cc' 4ee'	.
4G')	4b' 4dd'	.
=14	=14	=14
*ped	*	*
(4c'	2cc)	.
4C'	.	.
2CC)	4r	.
*Xped	*	*
.	(4ee-	p
!!LO:LB:g=z
=15	=15	=15
4r	12ggL	.
.	12ff	.
.	12ee-J)	.
(4c	(2ee-	.
4e-	.	.
4g)	4dd	.
=16	=16	=16
4r	2cc)	.
(4a-	.	.
4g	(4.ccc	mf
4f	.	.
.	16bb-LL	.
.	16aa-JJ	.
=17	=17	=17
4e-	4gg)	.
4c	(4ccc	.
.	(16ggqq	.
4d 4f	2ffT)	>
4G	.	.
=18	=18	=18
4c	2ee-)	]
4C)	.	.
.	(16ee-qLL	.
.	16ffqJJ	.
4r	(4.gg)	p
(4e-	.	.
.	16ffLL	.
.	16ee-JJ	.
=19	=19	=19
4f	4dd	.
4g	4b	.
4a-	4.ccT	.
4A-	.	.
.	16bLL	.
.	16ccJJ	.
!!LO:LB:g=z
=20	=20	=20
4G	2dd)	.
4B	.	.
2g)	4r	.
.	4dd~	p
=21	=21	=21
4r	(12ddL	.
.	12ee	.
.	12ff#J	.
*clefG2	*	*
*	*Xtuplet	*
(4d' 4b'	12ggL	.
.	12aa	.
.	12bbJ	.
4d' 4b'	4gg'	.
4d') 4b'	4dd')	.
=22	=22	=22
.	(16eeqq	.
4r	()4ddT	.
(4d' 4a'	2cc)	.
4d' 4a'	.	.
4d') 4a'	4cc~	.
=23	=23	=23
4r	(12ccL	.
.	12dd	.
.	12eeJ	.
(4d' 4a'	12ff#L	.
.	12gg	.
.	12aaJ	.
4d' 4a'	4ff#'	.
4d') 4a'	4cc')	.
!!LO:LB:g=z
=24	=24	=24
.	(16ddqq	.
4r	()4ccT	.
(4d' 4g'	2b)	.
4d' 4g'	.	.
4d') 4g'	4b~	.
=25	=25	=25
4r	(12bL	.
.	12a	.
.	12bJ	.
(4c' 4e'	12ccL	.
.	12dd	.
.	12dd#J	.
4c' 4e'	4ee'	.
4c') 4e'	4b')	.
=26	=26	=26
4r	(12aL	.
.	12g	.
.	12aJ	.
*clefF4	*	*
4B (4d	12bL	.
.	12cc	.
.	12cc#J	.
4B' 4d'	4dd'	.
4B' 4d')	4gg')	.
=27	=27	=27
4r	(12ggL	.
.	12ff#	.
.	12aaJ	.
4A~ 4c	4ccn~)	.
4r	(12ggL	.
.	12ff#	.
.	12aaJ	.
4G~ 4c	4cc~)	.
!!LO:LB:g=z
=28	=28	=28
4r	(12ggL	.
.	12ff#	.
.	12aaJ	.
4F#~ 4c	4cc~)	.
4r	(12ggL	.
.	12ff#	.
.	12aaJ	.
4E~ 4c	4cc~)	.
=29	=29	=29
2D 2A 2c	16r	.
.	(16ccLL	<
.	16dd	.
.	16eeJJ	.
.	16ff#LL	.
.	16gg	.
.	16aa	.
.	16bbJJ	.
2r	8cccL	.
.	8bb)	[ mf
.	(8aaM	>
.	8ggJ)	]]
=30	=30	=30
2C 2A 2c	16r	pp
.	(16ccLL	.
.	16dd	.
.	16eeJJ	.
.	16ff#LL	.
.	16gg	.
.	16aa	.
.	16bbJJ	.
2r	8cccL	.
.	8bb)	.
.	(8aaM	.
.	8ggJ)	.
!!LO:LB:g=z
=31	=31	=31
2BB 2G 2B	16r	.
.	(16ddLL	mf
.	16ee	.
.	16ff#JJ	.
.	16ggLL	.
.	16aa	.
.	16bb	.
.	16cccJJ	.
4r	8dddL)	.
.	(8bb	.
(<4B	8gg	.
.	8ddJ	.
=32	=32	=32
4c	8ee')	.
.	(4cc	.
4C	.	.
.	16bLL	.
.	16aJJ	.
4D	4g 4b	.
4DD	4f# 4aM	.
=33	=33	=33
*	*^	*
4.GG)	8gL	4.g)	.
.	(8gg	.	p
.	8ffn	.	.
(8g	8ee-J	8ryy	.
8fL	2ryy	8ddL	<
8e-	.	8ccJ	.
8d	.	8b-L	.
8cJ	.	16ccL	.
.	.	32b-L	.
.	.	32ccJJJ	.
*	*v	*v	*
!!LO:LB:g=z
=34	=34	=34
4.B-)	8ddL)	.
.	(8gg	.
.	8ff	.
(8g	8ee-J	.
8fL	8ddL	.
8e-	8ccJ	.
8d	8b-L	.
8cJ	16ccL	.
.	32b-L	.
.	32ccJJJ	.
=35	=35	=35
4.B-)	8dd'L)	mf
.	(8ddd	.
.	8ccc	.
(8d	8bb-J	.
8cL	8aaL	.
8B-	8ggJ	.
8A	8ff#L	.
8GJ	16ggL	.
.	32ff#L	.
.	32ggJJJ	.
=36	=36	=36
4.F#)	8aaL)	.
.	(8ddd	p
.	8ccc	.
*clefG2	*	*
(<8dd	8bb-J	.
8ccL	8aaL	.
8b-	8ggJ	.
8a	8ff#L	.
8gJ	16ggL	.
.	32ff#L	.
.	32ggJJJ)	.
!!LO:LB:g=z
=37	=37	=37
2f#	8r	.
.	8ff#' 8aa'L	.
.	(8ff# 8aa	.
.	8gg 8bbnJ)	.
2e)	8r	.
.	8gg' 8bb'L	.
.	(8gg 8bb	.
.	8aa 8cccJ)	.
*clefF4	*	*
=38	=38	=38
2D 2A 2d	16r	p <
.	(16ccLL	.
.	16dd	.
.	16eeJJ	.
.	16ff#LL	.
.	16gg	.
.	16aa	.
.	16bbJJ	.
2r	8cccL	[ mf
.	8bb)	>
.	(8aaM	.
.	8ggJ)	]]
=39	=39	=39
2C 2A 2c	16r	pp
.	(16ccLL	.
.	16dd	.
.	16eeJJ	.
.	16ff#LL	.
.	16gg	.
.	16aa	.
.	16bbJJ	.
2r	8cccL	.
.	8bb)	.
.	(8aaM	.
.	8ggJ)	.
!!LO:LB:g=z
=40	=40	=40
2BB 2G 2B	16r	mf
.	(16ddLL	.
.	16ee	.
.	16ff#JJ	.
.	16ggLL	.
.	16aa	.
.	16bb	.
.	16cccJJ	.
4r	8dddL)	.
.	(8bb	.
(4B	8gg	.
.	8ddJ	.
=41	=41	=41
4c)	8ee')	.
.	(4cc	.
(4c	.	.
.	16bLL	.
.	16aJJ	.
4d)	4g 4b	.
4d	4f# 4a)M	.
=42	=42	=42
4r	8ee'	p
.	(4cc	.
(4c	.	.
.	16bLL	.
.	16aJJ	.
4d)	4g 4b	.
4d	4f# 4a)M	.
!!LO:LB:g=z
=43	=43	=43
4r	(16aLL	mf
.	16g#i	.
.	16b	.
.	16aJJ	.
(4c	16ccLL	.
.	16b	.
.	16dd	.
.	16ccJJ	.
4d)	4gn 4b	.
4d	4f# 4a)MM	.
=44	=44	=44
4r	(16aLL	p
.	16g#i	.
.	16b	.
.	16aJJ	.
(<4c	16ccLL	.
.	16b	.
.	16dd	.
.	16ccJJ	.
4d	4gn 4b	.
4c	4f# 4a)MM	.
=45	=45	=45
4B	(8ggL	mf
.	8ddJ	.
4c'	16ccLL	.
.	16bJ	.
.	8aJ)	.
4d	(4g 4b	.
4D	4f# 4aMM	.
=46	=46	=46
2GG)	2g)	.
4r	4r	.
=:|!	=:|!	=:|!
*>B	*>B	*>B
4r	4r	.
!!LO:LB:g=z
=47||	=47||	=47||
*M3/8	*M3/8	*M3/8
*MM126	*MM126	*MM126
!!!OMD: Allegro ([quarter-dot]=84)
(4G'	8dd'L	p
.	(8g	.
8A	8f#J	.
=48	=48	=48
8BL	8gL	<
8A	8a	.
8GJ	8bJ)	[
=49	=49	=49
8cL	(16bLL	mf
.	16a)	.
8d	(16a	.
.	16g)	.
8cJ	(16g	.
.	16f#JJ	.
=50	=50	=50
8B'L)	8g'L)	.
8A'	8a'	.
8G'J	8b'J	.
=51	=51	=51
(8cL	(16bLL	p
.	16a)	.
8d	(16a	.
.	16g)	.
8cJ	(16g	.
.	16f#JJ	.
=52	=52	=52
8B'L)	8g'L)	.
8A'	8a'	.
8G'J	8b'J	.
!!LO:LB:g=z
=53	=53	=53
.	(16ccqLL	.
.	16ddqJJ	.
(8cL	(8eeL)	mf
8d	16ddL	.
.	16cc	.
8cJ	16b	.
.	16aJJ	.
=54	=54	=54
8BL	8gLMM<	.
8A')	8f#')	.
8G'J	8g'J	.
=55	=55	=55
8r	8gg'L	.
(8cL	(8cc	p
8dJ	8bJ	.
=56	=56	=56
8eL	8ccL	<
8d	8dd	.
8cJ	8eeJ)	[
=57	=57	=57
8fL	(16eeLL	.
.	16dd)	.
8g	(16dd	.
.	16cc)	.
8fJ	(16cc	.
.	16bJJ	.
=58	=58	=58
8e'L)	8cc'L)	.
8d'	8dd'	.
8c'J	8ee'J	.
!!LO:LB:g=z
=59	=59	=59
(8fL	(16eeLL	p
.	16dd)	.
8g	(16dd	.
.	16cc)	.
8fJ	(16cc	.
.	16bJJ	.
=60	=60	=60
8e'L)	8cc'L)	.
8d'	8dd'	.
8c'J	8ee'J	.
=61	=61	=61
(8fL	(16ddLL	<
.	16aa	.
8g')	16gg	.
.	16ff	.
8G'J	16ee	.
.	16ddJJ	.
=62	=62	=62
4.C	8ccLMM	f >
.	8b)	.
.	8cc'J	]]
=63	=63	=63
4A- 4e-	8r	.
.	(16ccLL	<
.	16dd	.
(<8A- 8e-	16ee-	.
.	16ddJJ	[[
=64	=64	=64
8G'< 8e-'<L)	8ee-'L)	mf
8F'<	8ff'	.
8E-'<J	8gg'J	.
!!LO:LB:g=z
=65	=65	=65
8A-'L	8ff'L	.
8B-'	8ee-'	.
8BB-'J	8dd'J	.
=66	=66	=66
4.E-	(8ee-LMM	>
.	8dd)	.
.	8ee-'J	]
=67	=67	=67
4B- 4f	8r	p
.	(16ddLL	<
.	16een	.
(<8B- 8f	16ff	.
.	16eeJJ	[
=68	=68	=68
8A-'< 8f'<L)	8ff'L)	mf
8G'<	8gg'	.
8F'<J	8aa-'J	.
=69	=69	=69
8B-'L	8gg'L	.
8c'	8ff'	.
8C'J	8ee'J	.
=70	=70	=70
4.F	(8ffLMM	>
.	8ee)	.
.	8ff'J	]
!!LO:LB:g=z
=71	=71	=71
4c 4g	8r	<
.	(16eeLL	.
.	16ff#	.
(<8c 8g	16gg	.
.	16ff#JJ	.
=72	=72	=72
8B-'< 8g'<L)	8gg'L)	.
8A'<	8aa'	.
8G'<J	8bb-'J	.
=73	=73	=73
8c'L	8aa'L	.
8d'	8gg'	.
8D'J	8ff#'J	.
=74	=74	=74
4G	8gg'L	f
.	(16b-L	p
.	16cc	<
*clefG2	*	*
(8g 8b-	16dd	.
.	16ee-JJ	.
=75	=75	=75
4f# 4a)	8ee-'L)	.
.	(16ddL	.
.	16cc	.
(8g 8b-	16dd	.
.	16ee-JJ	.
=76	=76	=76
4f# 4a)	8ee-'L)	.
.	(16ddL	.
.	16cc	.
(8g 8b-	16dd	.
.	16ee-JJ	.
!!LO:LB:g=z
=77	=77	=77
8fn 8aL)	8ee-'L)	.
(8f 8a	8dd'	.
8e- 8gJ	8gg'J	.
=78	=78	=78
.	(16ggqq	.
4.d) 4.a	(8.ff#L)m	f
.	16eenk	.
.	8ddJ)	.
*clefF4	*	*
=79	=79	=79
8e-' 8g'L	(16ggLL	f
.	16cc	.
8d' 8f'	16ffn	.
.	16b-	.
8c' 8e-'J	16ee-	.
.	16aJJ	.
=80	=80	=80
8B-' 8d'L	16ddLL	.
.	16g	.
8A' 8c'	16cc	.
.	16f#J	.
8G' 8B-'J	8b-'J)	.
=81	=81	=81
8c'L	8a'L	.
8d'	8g'	.
8D'J	8f#'Jm<	.
!!LO:LB:g=z
=82	=82	=82
(8e- 8gL	(16ggLL	p
.	16cc	.
8d 8f	16ffn	.
.	16b-	.
8c 8e-J	16ee-	.
.	16aJJ	.
=83	=83	=83
8B- 8dL	16ddLL	.
.	16g	.
8A 8c	16cc	.
.	16f#J	.
8G' 8B-'J)	8b-'J)	.
=84	=84	=84
8c'L	8a'L	.
8d'	8g'	.
8D'J	8f#'Jm<	.
=85	=85	=85
4.G	8g'L	<
.	(16gL	.
.	16a	.
.	16bn	.
.	16ccJJ)	.
=86	=86	=86
.	(16ccqq	.
4.D 4.F 4.G 4.B	8bL)	.
.	(16ccL	.
.	16dd	.
.	16ee-	.
.	16ffJJ)	.
!!LO:LB:g=z
=87	=87	=87
.	(16ffqq	.
4.C 4.G 4.c	(8ee-L)	f
.	16ddL	.
.	16cc	.
.	16b-	.
.	16aJJ	.
=88	=88	=88
8D' 8G' 8B-'	8d' 8g')	.
(<4D 4A	4c (>4f#mm	.
=89	=89	=89
4.GG)	8g'L)	.
.	(16gL	p
.	16a	<
.	16bn	.
.	16ccJJ)	.
=90	=90	=90
.	(16ccqq	.
4.D 4.F 4.G 4.B	8bL)	.
.	(16ccL	.
.	16dd	.
.	16ee-	.
.	16ffJJ)	.
=91	=91	=91
.	(16ffqq	.
4.C 4.G 4.c	(8ee-L)	f
.	16ddL	.
.	16cc	.
.	16b-	.
.	16aJJ	.
!!LO:LB:g=z
=92	=92	=92
8D' 8G' 8B-'	8d' 8g')	.
(<4D 4A	4c 4f#mm	.
=93	=93	=93
.	(8f#qq	.
8GGL>)	4.g)	>
(<8G	.	.
8FnJ	.	]]
=94	=94	=94
4E-) 4B-	8r	p
.	(16gLL	<
.	16f	.
(<8E- 8B-	16g	.
.	16aJJ	[[
=95	=95	=95
8D'<) 8B-'<L<	8b-'L)	mf
8C'<	8cc'	.
8BB-'<J	8dd'J	.
=96	=96	=96
8E-'L	8cc'L	.
8F'	8b-'	.
8FF'J	8a'J	.
=97	=97	=97
4.BB-	(8b-L<MM	>
.	8a)	.
.	8b-'J	]
!!LO:LB:g=z
=98	=98	=98
4F 4c	8r	p
.	(16aLL	<
.	16bn	.
(<8F 8c	16cc	.
.	16bJJ	[[
=99	=99	=99
8E-' 8c'L)	8cc'L)	mf
8D'	8dd'	.
8C'J	8ee-'J	.
=100	=100	=100
8F'L>	8dd'L	.
8G'	8cc'	.
8GG'J	8b'J	.
=101	=101	=101
8C'L	8cc'L	.
(8c 8e-	(16ee-L	.
.	16cc	.
8B- 8dJ	16dd	.
.	16b-JJ	.
=102	=102	=102
8A- 8cL)	8ff'L)	.
(<8A- 8c	(16ffL	.
.	16dd	.
8G 8cJ	16ee-	.
.	16ccJJ	.
!!LO:LB:g=z
=103	=103	=103
8F 8cL)	8aa-'L)	.
(<8F 8c	(16aa-L	.
.	16ff	.
8E- 8cJ	16gg	.
.	16ee-JJ	.
=104	=104	=104
8BL	16ffLL	.
.	16dd	.
8c)	16ee-	.
.	16cc	.
8c'J	16aa-i	.
.	16ccJJ)	.
=105	=105	=105
.	(16ccqq	.
(8G	(8.bnLm<)	.
4GG)	.	.
.	16ak	.
.	8gJ)	.
*clefG2	*	*
=106	=106	=106
4cc	8r	p
.	(16ee-LL	.
.	16ff	.
(8cc	16gg	.
.	16aa-JJ	.
=107	=107	=107
4b)	8aa-'L)	<
.	(16ggL	.
.	16ff	.
(8cc	16gg	.
.	16aa-JJ	.
!!LO:LB:g=z
=108	=108	=108
4b)	8aa-'L)	.
.	(16ggL	.
.	16ff	.
(8cc	16gg	.
.	16aa-JJ	.
=109	=109	=109
8b-L)	8aa-'L)	.
8b-'	8gg'	.
8a-' 8cc'J	8ccc'J	.
=110	=110	=110
.	(16cccqq	.
4.g 4.dd	(8.bbL)m	f
.	16aank	.
.	8ggJ)	.
=111	=111	=111
8a-' 8cc'L	(16ccc'LL	f
.	16ff	.
8g' 8b-'	16bb-	.
.	16ee-	.
8f' 8a-'J	16aa-	.
.	16ddJJ	.
=112	=112	=112
8e-' 8g'L	16gg'LL	.
.	16cc	.
8d' 8f'	16ff	.
.	16bnJ	.
8c' 8g'J	8ee-'J)	.
!!LO:LB:g=z
=113	=113	=113
8f'L	8dd'L	.
8g'	8cc'	.
8G'J	8b'Jm	.
=114	=114	=114
(8a- 8ccL	(16cccLL	p
.	16ff	.
8g 8b-	16bb-	.
.	16ee-	.
8f 8a-J	16aa-	.
.	16ddJJ	.
=115	=115	=115
8e- 8gL	16ggLL	.
.	16cc	.
8d 8f	16ff	.
.	16bnJ	.
8c' 8g'J)	8ee-'J)	.
=116	=116	=116
8f'L	8dd'L	.
8g'	8cc'	.
8G'J	8b'Jm	.
=117	=117	=117
4.c	8cc'L	<
.	(16ccL	.
.	16dd	.
.	16een	.
.	16ffJJ)	.
*clefF4	*	*
!!LO:LB:g=z
=118	=118	=118
.	(16ffqq	.
4.G 4.B- 4.c 4.e	8eeL)	.
.	(16ffL	.
.	16gg	.
.	16aa-	.
.	16bb-JJ)	.
=119	=119	=119
.	(16bb-qq	.
4.F 4.c 4.f	(8aa-L)	f
.	16ggL	.
.	16ff	.
.	16ee-	.
.	16ddJJ	.
=120	=120	=120
8G' 8c' 8e-'	8cc')	.
4G 4d 4f	4bmm	.
=121	=121	=121
4.C 4.c	8cc'L	.
.	(16ccL	p
.	16dd	<
.	16een	.
.	16ffJJ)	.
=122	=122	=122
.	(16ffqq	.
4.G 4.B- 4.c 4.e	8eeL)	.
.	(16ffL	.
.	16gg	.
.	16aa-	.
.	16bb-JJ)	.
!!LO:LB:g=z
=123	=123	=123
.	(16bb-qq	.
4.F 4.c 4.f	()8aa-L	f
.	16ggL	.
.	16ff	.
.	16ee-	.
.	16ddJJ	.
=124	=124	=124
8G' 8c' 8e-'	8cc')	.
4G 4d 4f	(4bmm	.
=125	=125	=125
4C	8ccL)	.
.	(16eenL	p
.	16ff	.
(<8c 8g	16gg	.
.	16aaJJ	.
=126	=126	=126
8B' 8g'L)	8dd'L)	<
8B' 8g'	(16eeL	.
.	16ff	.
(<8B 8gJ	16gg	.
.	16aaJJ	.
=127	=127	=127
8A 8gL)	8cc'L)	.
8A' 8g'	(16eeL	.
.	16ff	.
(<8A 8gJ	16gg	.
.	16aaJJ	.
!!LO:LB:g=z
=128	=128	=128
8G' 8g'L)	8b'L)	.
8G 8g	(16eeL	.
.	16ff	.
(8G 8gJ	16gg	.
.	16aaJJ	.
=129	=129	=129
8F' 8f'L)	8a'L)	.
8F' 8f'	(16eeL	.
.	16ff	.
(8F 8fJ	16gg	.
.	16aaJJ	.
=130	=130	=130
8E' 8e'L)	8gg'L)	f
8D' 8d'	8ff'	.
8C' 8c'J	8ee'J	.
=131	=131	=131
8F'L	8dd'L	.
8G'	8cc'	.
8GG'J	8b'Jm	.
=132	=132	=132
4C	8cc'L	.
.	(16eeL	p
.	16ff	.
(<8c 8g	16gg	.
.	16aaJJ	.
=133	=133	=133
8B'< 8g'<L)	8dd'L)	<
8B'< 8g'<	(16eeL	.
.	16ff	.
(<8B 8gJ	16gg	.
.	16aaJJ	.
!!LO:LB:g=z
=134	=134	=134
8A 8gL)	8cc'L)	.
8A' 8g'	(16eeL	.
.	16ff	.
(<8A 8gJ	16gg	.
.	16aaJJ	.
=135	=135	=135
8G' 8g'L)	8b'L)	.
8G' 8g'	(16eeL	.
.	16ff	.
(8G 8gJ	16gg	.
.	16aaJJ	.
=136	=136	=136
8F' 8f'L)	8a'L)	.
8F' 8f'	(16eeL	.
.	16ff	.
(8F 8fJ	16gg	.
.	16aaJJ	.
=137	=137	=137
8E' 8e'L)	8gg'L)	f
8D' 8d'	8ff'	.
8C' 8c'J	8ee'J	.
=138	=138	=138
8F'L	8dd'L	.
8G'	8cc'	.
8GG'J	8b'Jm	.
=139	=139	=139
(8cL	(16ccLL	.
.	16gg	.
8d	16ee	.
.	16ccJ	.
8eJ	8gg'J)	.
!!LO:LB:g=z
=140	=140	=140
8f'L)	8dd'	.
(8g	4ffMM	.
8GJ	.	.
=141	=141	=141
8cL	(16eeLL	.
.	16gg	.
8d	16ee	.
.	16ccJ	.
8eJ	8gg'J)	.
=142	=142	=142
8f'L)	8dd'	.
(8g	4ffMM	.
8GJ)	.	.
=143	=143	=143
(8CL	(16eeLL	.
.	16gg	.
8D	16ee	.
.	16ccJ	.
8EJ	8cccJ)	.
=144	=144	=144
8F'L>)	8c'	.
(8G	(4dT	.
8GGJ)	.	.
.	32cqLLL	.
.	32dqJJJ	.
=145	=145	=145
4.CC	4.c)	.
==:|!	==:|!	==:|!
*-	*-	*-
!!!RDF**kern: > = above
!!!RDF**kern: < = below
!!!RDF**kern: i = editorial accidental
!!!URL-vhv: https://verovio.humdrum.org/?file=scarlatti/sonatas/L303K170.krn
!!!URL-pdf: https://github.com/craigsapp/scarlatti-keyboard-sonatas/blob/master/reference-edition/L303K170.pdf
!!!PTL: Domenico Scarlatti: Opere complete per clavicembalo
!!!PED: Longo, Alessandro
!!!PPR: Ricordi
!!!PPP: Milan
!!!PDT: 1906-1913
!!!YEC: 2021 Craig Stuart Sapp
!!!YEM: Licence: (CC BY-NC-SA 4.0) https://creativecommons.org/licenses/by-nc-sa/4.0
!!!ENC: Craig Stuart Sapp
!!!END: 2004/11/06/
!!!EED: Craig Stuart Sapp
!!!EEV: 2021/06/13
